src/assets/icons/verifiedIcon.svg

<svg xmlns="http://www.w3.org/2000/svg" width="12" height="12" viewBox="0 0 12 12" fill="none">
  <path d="M4.14545 12L3.10909 10.1714L1.14545 9.71429L1.33636 7.6L0 6L1.33636 4.4L1.14545 2.28571L3.10909 1.82857L4.14545 0L6 0.828571L7.85455 0L8.89091 1.82857L10.8545 2.28571L10.6636 4.4L12 6L10.6636 7.6L10.8545 9.71429L8.89091 10.1714L7.85455 12L6 11.1714L4.14545 12ZM5.42727 8.02857L8.50909 4.8L7.74545 3.97143L5.42727 6.4L4.25455 5.2L3.49091 6L5.42727 8.02857Z" fill="white"/>
</svg>

<svg xmlns="http://www.w3.org/2000/svg" width="12" height="12" fill="none"><path fill="#fff" d="M4.145 12 3.11 10.171l-1.964-.457.191-2.114L0 6l1.336-1.6-.19-2.114 1.963-.457L4.145 0 6 .829 7.855 0 8.89 1.829l1.963.457-.19 2.114L12 6l-1.336 1.6.19 2.114-1.963.457L7.855 12 6 11.171zm1.282-3.971L8.51 4.8l-.764-.829L5.427 6.4 4.255 5.2 3.49 6z"/></svg>
